gos-pohoronq/img/video.svg

<svg width="36" height="36" viewBox="0 0 36 36" fill="none" xmlns="http://www.w3.org/2000/svg">
<path d="M18.0003 0.857178C27.468 0.857178 35.1431 8.5323 35.1431 18C35.1431 27.4678 27.468 35.1429 18.0003 35.1429C8.53254 35.1429 0.857422 27.4678 0.857422 18C0.857422 8.5323 8.53254 0.857178 18.0003 0.857178ZM18.0003 3.71432C10.1105 3.71432 3.71456 10.1103 3.71456 18C3.71456 25.8898 10.1105 32.2857 18.0003 32.2857C25.8901 32.2857 32.286 25.8898 32.286 18C32.286 10.1103 25.8901 3.71432 18.0003 3.71432ZM15.0785 11.0303C15.5675 11.0303 16.048 11.1587 16.4719 11.4028L23.7269 15.5799C25.0635 16.3495 25.5232 18.0568 24.7536 19.3933C24.5079 19.8201 24.1537 20.1743 23.7269 20.42L16.4719 24.5972C15.1353 25.3667 13.428 24.9071 12.6585 23.5705C12.4144 23.1467 12.286 22.6662 12.286 22.1772V13.8228C12.286 12.2805 13.5362 11.0303 15.0785 11.0303ZM15.1431 13.9346V22.0653L22.204 18L15.1431 13.9346Z" fill="white"/>
</svg>

<svg width="36" height="36" fill="none" xmlns="http://www.w3.org/2000/svg"><path d="M18 .857C27.468.857 35.143 8.532 35.143 18S27.468 35.143 18 35.143C8.533 35.143.857 27.468.857 18S8.533.857 18 .857zm0 2.857C10.11 3.714 3.715 10.11 3.715 18S10.11 32.286 18 32.286c7.89 0 14.286-6.396 14.286-14.286S25.89 3.714 18 3.714zm-2.92 7.316c.489 0 .969.129 1.393.373l7.255 4.177a2.792 2.792 0 010 4.84l-7.255 4.177a2.792 2.792 0 01-4.186-2.42v-8.354a2.792 2.792 0 012.793-2.793zm.064 2.905v8.13L22.204 18l-7.06-4.065z" fill="#fff"/></svg>
